icons/file-search-fill.svg

<svg viewBox="0 0 24 24" fill="currentColor" xmlns="http://www.w3.org/2000/svg"><path d="M16 2L21 7V21.0082C21 21.556 20.5551 22 20.0066 22H3.9934C3.44476 22 3 21.5447 3 21.0082V2.9918C3 2.44405 3.44495 2 3.9934 2H16ZM13.529 14.4464L15.7395 16.6569L17.1537 15.2426L14.9432 13.0322C15.8492 11.4983 15.6432 9.48951 14.3252 8.17157C12.7631 6.60948 10.2305 6.60948 8.66839 8.17157C7.1063 9.73367 7.1063 12.2663 8.66839 13.8284C9.98633 15.1464 11.9951 15.3524 13.529 14.4464ZM12.911 12.4142C12.13 13.1953 10.8637 13.1953 10.0826 12.4142C9.30156 11.6332 9.30156 10.3668 10.0826 9.58579C10.8637 8.80474 12.13 8.80474 12.911 9.58579C13.6921 10.3668 13.6921 11.6332 12.911 12.4142Z"/></svg>

<svg xmlns="http://www.w3.org/2000/svg" viewBox="0 0 24 24">
    <g>
        <path fill="none" d="M0 0h24v24H0z"/>
        <path d="M16 2l5 5v14.008a.993.993 0 0 1-.993.992H3.993A1 1 0 0 1 3 21.008V2.992C3 2.444 3.445 2 3.993 2H16zm-2.471 12.446l2.21 2.21 1.415-1.413-2.21-2.21a4.002 4.002 0 0 0-6.276-4.861 4 4 0 0 0 4.861 6.274zm-.618-2.032a2 2 0 1 1-2.828-2.828 2 2 0 0 1 2.828 2.828z"/>
    </g>
</svg>
